actions/24/view-unsplit-effect.svg

<svg xmlns="http://www.w3.org/2000/svg" viewBox="0 0 24 24" width="24" height="24">
  <defs id="defs3051">
    <style type="text/css" id="current-color-scheme">
      .ColorScheme-Text {
        color:#eff0f1;
      }
      </style>
  </defs>
  <g transform="translate(1,1)">
    <path style="fill:currentColor;fill-opacity:1;stroke:none" d="M 3 3 L 3 19 L 19 19 L 19 3 L 3 3 z M 4 7 L 18 7 L 18 18 L 4 18 L 4 7 z M 9.4941406 7.9960938 L 7.8085938 11.369141 L 5 11.369141 L 7.2460938 13.615234 L 6.6835938 16.988281 L 9.4921875 15.302734 L 12.302734 16.988281 L 11.740234 13.615234 L 13.990234 11.369141 L 11.179688 11.369141 L 9.4941406 7.9960938 z M 12.033203 8.0195312 L 12.033203 9.0195312 L 17.003906 9.0195312 L 17.003906 8.0195312 L 12.033203 8.0195312 z M 15 10 L 15 11 L 17 11 L 17 10 L 15 10 z M 15.003906 12.019531 L 15.003906 13.019531 L 17.003906 13.019531 L 17.003906 12.019531 L 15.003906 12.019531 z M 13.005859 13.980469 L 13.005859 14.980469 L 17.003906 14.980469 L 17.003906 13.980469 L 13.005859 13.980469 z M 12.990234 15.980469 L 12.990234 16.980469 L 17.003906 16.980469 L 17.003906 15.980469 L 12.990234 15.980469 z " class="ColorScheme-Text"/>
  </g>
</svg>

<svg xmlns="http://www.w3.org/2000/svg" viewBox="0 0 24 24" width="24" height="24">
  <defs id="defs3051">
    <style type="text/css" id="current-color-scheme">.ColorScheme-Text {color:#fcfcfc;}</style>
  </defs>
  <g transform="translate(1,1)">
    <path style="fill:currentColor;fill-opacity:1;stroke:none" d="m 3,6 c 0,3 0,7 0,10 0,3 2.9306506,3 2.9306506,3 H 16 c 0,0 3,0 3,-3 C 19,13 19,9 19,6 19,3 16,3 16,3 L 6,3 C 6,3 3,3 3,6 Z M 4,9 C 4,7 6,7 6,7 h 10 c 0,0 2,0 2,2 0,2 0,5 0,7 0,2 -2,2 -2,2 H 6 C 6,18 4,18 4,16 4,14 4,11 4,9 Z M 9.4941406,7.9960938 7.8085938,11.369141 H 5 l 2.2460938,2.246093 -0.5625,3.373047 2.8085937,-1.685547 2.8105465,1.685547 -0.5625,-3.373047 2.25,-2.246093 h -2.810546 z m 2.5390624,0.023437 v 1 h 4.970703 v -1 z M 15,10 v 1 h 2 v -1 z m 0.0039,2.019531 v 1 h 2 v -1 z m -1.998047,1.960938 v 1 h 3.998047 v -1 z m -0.01563,2 v 1 h 4.013672 v -1 z" class="ColorScheme-Text"/>
  </g>
</svg>
